public/img/glass.svg

<?xml version="1.0" encoding="UTF-8" standalone="no"?>
<svg width="39px" height="15px" viewBox="0 0 39 15" version="1.1" xmlns="http://www.w3.org/2000/svg" xmlns:xlink="http://www.w3.org/1999/xlink">
    <!-- Generator: sketchtool 3.8.3 (29802) - http://www.bohemiancoding.com/sketch -->
    <title>2C7E9F95-0BB3-4427-9D1E-48E845472A32</title>
    <desc>Created with sketchtool.</desc>
    <defs></defs>
    <g id="Page-1" stroke="none" stroke-width="1" fill="none" fill-rule="evenodd">
        <g id="Home-Copy" transform="translate(-40.000000, -58.000000)">
            <g id="Page-1" transform="translate(41.000000, 59.000000)">
                <path d="M33.7843616,8.76585517 C33.400825,9.89506207 32.6953433,10.7956483 31.697697,11.333131 C32.6944409,10.7943034 33.399697,9.89214828 33.7827823,8.76383793 C34.1620323,7.64651034 34.4733738,6.48054483 34.595203,5.30628621 C34.4742762,6.48121724 34.1638372,7.64830345 33.7843616,8.76585517 M25.0936482,1.1232 C25.9178006,0.949941379 26.7622579,0.888303448 27.610325,0.893682759 C28.4583921,0.899062069 29.3102945,0.971010345 30.1468555,1.06447586 C31.1903006,1.18102759 32.4699591,1.33478621 33.3974409,1.86352759 C32.4695079,1.33545862 31.1893982,1.18282069 30.1457274,1.06626897 C28.4728311,0.879337931 26.7415018,0.778027586 25.0927457,1.12454483 C22.7908494,1.60823448 21.5461604,2.30687241 21.0814043,3.34082069 C21.5457091,2.3062 22.7906238,1.60711379 25.0936482,1.1232 M15.1837396,8.32138966 C15.0289713,8.63944138 14.8588616,8.93485517 14.6745384,9.20897586 C14.8584104,8.93552759 15.0282945,8.64033793 15.1826116,8.32318276 C17.2043006,4.1669931 17.1052579,2.15647586 12.1941848,1.12454483 C10.5456543,0.778027586 8.814325,0.879337931 7.14120305,1.06626897 C6.31862988,1.15816552 5.34918476,1.2727 4.52097134,1.57528621 C5.34918476,1.27157931 6.31885549,1.15659655 7.14187988,1.06447586 C7.97844085,0.971010345 8.83034329,0.899062069 9.67818476,0.893682759 C10.5262518,0.888303448 11.3707091,0.949941379 12.1950872,1.1232 C17.106386,2.15513103 17.2056543,4.16542414 15.1837396,8.32138966 M3.50437378,8.76585517 C3.35298963,8.32026897 3.21401402,7.86616552 3.09150793,7.40735517 C3.21423963,7.86526897 3.35321524,8.3187 3.50437378,8.76383793 C3.79180061,9.61063103 4.26084329,10.3301138 4.89819085,10.8642345 C4.26084329,10.3310103 3.79180061,9.61264828 3.50437378,8.76585517 M36.861453,2.28042414 C36.9165018,1.81107931 37.0225384,1.39597586 36.3502213,1.30385517 C35.1777274,1.14292414 34.0404287,0.653855172 32.840636,0.488217241 C31.7033372,0.33132069 30.5892762,0.104493103 29.4291909,0.112337931 C26.4416665,0.132062069 23.5626604,1.05976897 20.6301848,1.43071724 C19.4062518,1.58559655 18.1448677,1.6237 16.9189043,1.47957931 C15.2890994,1.28816552 13.7109591,0.779596552 12.0820567,0.551872414 C10.6264226,0.348131034 9.15228841,0.135424138 7.68740427,0.126906897 C5.12763598,0.111889655 2.6515689,0.908251724 0.142111585,1.33792414 C0.142111585,2.06726897 -0.00701646341,3.0034931 0.368172561,3.51609655 C0.755093293,4.04483793 1.40800793,4.52830345 1.57744085,5.24487241 C1.97902622,6.94406207 2.54914207,8.60963103 3.2780872,10.2063897 C3.63252012,10.9825793 4.30122744,11.5234241 5.04777012,11.8961655 C6.84587988,12.7936138 8.9738311,12.925631 10.9465628,12.6434414 C13.7556299,12.2415621 15.2793982,10.1474414 16.4421909,7.7549931 C16.8773921,6.78245862 16.9258982,5.65997586 17.498947,4.77104483 C17.8393921,4.2432 18.6299287,4.46532069 19.1948555,4.46352759 C20.0361543,4.46061379 20.2385262,5.39504483 20.4140506,6.01635517 C21.0344774,8.21559655 22.0691238,10.5486483 24.1251055,11.7009414 C27.1956543,13.4216483 32.032953,13.0997862 34.0253128,9.99659655 C34.8047945,8.7819931 35.0202518,7.30851034 35.4114591,5.93342414 C35.6494774,5.09626897 35.8622274,4.0984069 36.7091665,3.63825172 C37.0509652,3.45244138 36.8111421,2.71121724 36.861453,2.28042414" id="Fill-1" fill="#3D1E39"></path>
                <path d="M33.7843616,8.76585517 C33.400825,9.89506207 32.6953433,10.7956483 31.697697,11.333131 C32.6944409,10.7943034 33.399697,9.89214828 33.7827823,8.76383793 C34.1620323,7.64651034 34.4733738,6.48054483 34.595203,5.30628621 C34.4742762,6.48121724 34.1638372,7.64830345 33.7843616,8.76585517 L33.7843616,8.76585517 Z M25.0936482,1.1232 C25.9178006,0.949941379 26.7622579,0.888303448 27.610325,0.893682759 C28.4583921,0.899062069 29.3102945,0.971010345 30.1468555,1.06447586 C31.1903006,1.18102759 32.4699591,1.33478621 33.3974409,1.86352759 C32.4695079,1.33545862 31.1893982,1.18282069 30.1457274,1.06626897 C28.4728311,0.879337931 26.7415018,0.778027586 25.0927457,1.12454483 C22.7908494,1.60823448 21.5461604,2.30687241 21.0814043,3.34082069 C21.5457091,2.3062 22.7906238,1.60711379 25.0936482,1.1232 L25.0936482,1.1232 Z M15.1837396,8.32138966 C15.0289713,8.63944138 14.8588616,8.93485517 14.6745384,9.20897586 C14.8584104,8.93552759 15.0282945,8.64033793 15.1826116,8.32318276 C17.2043006,4.1669931 17.1052579,2.15647586 12.1941848,1.12454483 C10.5456543,0.778027586 8.814325,0.879337931 7.14120305,1.06626897 C6.31862988,1.15816552 5.34918476,1.2727 4.52097134,1.57528621 C5.34918476,1.27157931 6.31885549,1.15659655 7.14187988,1.06447586 C7.97844085,0.971010345 8.83034329,0.899062069 9.67818476,0.893682759 C10.5262518,0.888303448 11.3707091,0.949941379 12.1950872,1.1232 C17.106386,2.15513103 17.2056543,4.16542414 15.1837396,8.32138966 L15.1837396,8.32138966 Z M3.50437378,8.76585517 C3.35298963,8.32026897 3.21401402,7.86616552 3.09150793,7.40735517 C3.21423963,7.86526897 3.35321524,8.3187 3.50437378,8.76383793 C3.79180061,9.61063103 4.26084329,10.3301138 4.89819085,10.8642345 C4.26084329,10.3310103 3.79180061,9.61264828 3.50437378,8.76585517 L3.50437378,8.76585517 Z M36.861453,2.28042414 C36.9165018,1.81107931 37.0225384,1.39597586 36.3502213,1.30385517 C35.1777274,1.14292414 34.0404287,0.653855172 32.840636,0.488217241 C31.7033372,0.33132069 30.5892762,0.104493103 29.4291909,0.112337931 C26.4416665,0.132062069 23.5626604,1.05976897 20.6301848,1.43071724 C19.4062518,1.58559655 18.1448677,1.6237 16.9189043,1.47957931 C15.2890994,1.28816552 13.7109591,0.779596552 12.0820567,0.551872414 C10.6264226,0.348131034 9.15228841,0.135424138 7.68740427,0.126906897 C5.12763598,0.111889655 2.6515689,0.908251724 0.142111585,1.33792414 C0.142111585,2.06726897 -0.00701646341,3.0034931 0.368172561,3.51609655 C0.755093293,4.04483793 1.40800793,4.52830345 1.57744085,5.24487241 C1.97902622,6.94406207 2.54914207,8.60963103 3.2780872,10.2063897 C3.63252012,10.9825793 4.30122744,11.5234241 5.04777012,11.8961655 C6.84587988,12.7936138 8.9738311,12.925631 10.9465628,12.6434414 C13.7556299,12.2415621 15.2793982,10.1474414 16.4421909,7.7549931 C16.8773921,6.78245862 16.9258982,5.65997586 17.498947,4.77104483 C17.8393921,4.2432 18.6299287,4.46532069 19.1948555,4.46352759 C20.0361543,4.46061379 20.2385262,5.39504483 20.4140506,6.01635517 C21.0344774,8.21559655 22.0691238,10.5486483 24.1251055,11.7009414 C27.1956543,13.4216483 32.032953,13.0997862 34.0253128,9.99659655 C34.8047945,8.7819931 35.0202518,7.30851034 35.4114591,5.93342414 C35.6494774,5.09626897 35.8622274,4.0984069 36.7091665,3.63825172 C37.0509652,3.45244138 36.8111421,2.71121724 36.861453,2.28042414 L36.861453,2.28042414 Z" id="Stroke-3" stroke="#3D1E39"></path>
            </g>
        </g>
    </g>
</svg>

<?xml version="1.0" encoding="utf-8"?>
<!-- Generator: Adobe Illustrator 16.0.0, SVG Export Plug-In . SVG Version: 6.00 Build 0)  -->
<!DOCTYPE svg PUBLIC "-//W3C//DTD SVG 1.1//EN" "http://www.w3.org/Graphics/SVG/1.1/DTD/svg11.dtd">
<svg version="1.1" id="Layer_1" xmlns="http://www.w3.org/2000/svg" xmlns:xlink="http://www.w3.org/1999/xlink" x="0px" y="0px"
	 width="39px" height="15px" viewBox="0 0 39 15" enable-background="new 0 0 39 15" xml:space="preserve">
<title>2C7E9F95-0BB3-4427-9D1E-48E845472A32</title>
<desc>Created with sketchtool.</desc>
<g id="Home-Copy" transform="translate(-40.000000, -58.000000)">
	<g id="Page-1" transform="translate(41.000000, 59.000000)">
		<path id="Fill-1" fill="#FFFFFF" stroke="#FFFFFF" d="M36.861,2.28c0.055-0.469,0.161-0.884-0.512-0.977
			c-1.172-0.161-2.309-0.65-3.509-0.815c-1.138-0.157-2.251-0.384-3.411-0.376c-2.988,0.02-5.867,0.947-8.799,1.318
			c-1.225,0.155-2.486,0.193-3.712,0.049c-1.63-0.191-3.208-0.7-4.837-0.928c-1.456-0.204-2.93-0.417-4.395-0.425
			c-2.56-0.015-5.036,0.781-7.545,1.211c0,0.729-0.149,1.666,0.226,2.178c0.387,0.529,1.04,1.012,1.209,1.729
			c0.401,1.699,0.972,3.364,1.701,4.962c0.354,0.775,1.023,1.316,1.77,1.689c1.798,0.896,3.926,1.029,5.899,0.747
			c2.809-0.401,4.333-2.496,5.496-4.889c0.435-0.973,0.483-2.095,1.057-2.984c0.34-0.528,1.131-0.306,1.696-0.308
			c0.841-0.003,1.043,0.932,1.219,1.553c0.621,2.199,1.655,4.532,3.711,5.685c3.07,1.721,7.908,1.398,9.9-1.705
			c0.779-1.214,0.995-2.688,1.387-4.063c0.237-0.837,0.45-1.835,1.297-2.295C37.051,3.453,36.811,2.711,36.861,2.28"/>
		<path id="Stroke-3" fill="none" stroke="#FCFCFC" d="M15.183,8.323 M15.184,8.321 M3.091,7.407 M3.504,8.766L3.504,8.766
			 M36.861,2.28c0.055-0.469,0.161-0.884-0.512-0.977c-1.172-0.161-2.309-0.65-3.509-0.815c-1.138-0.157-2.251-0.384-3.411-0.376
			c-2.988,0.02-5.867,0.947-8.799,1.318c-1.225,0.155-2.486,0.193-3.712,0.049c-1.63-0.191-3.208-0.7-4.837-0.928
			c-1.456-0.204-2.93-0.417-4.395-0.425c-2.56-0.015-5.036,0.781-7.545,1.211c0,0.729-0.149,1.666,0.226,2.178
			c0.387,0.529,1.04,1.012,1.209,1.729c0.401,1.699,0.972,3.364,1.701,4.962c0.354,0.775,1.023,1.316,1.77,1.689
			c1.798,0.896,3.926,1.029,5.899,0.747c2.809-0.401,4.333-2.496,5.496-4.889c0.435-0.973,0.483-2.095,1.057-2.984
			c0.34-0.528,1.131-0.306,1.696-0.308c0.841-0.003,1.043,0.932,1.219,1.553c0.621,2.199,1.655,4.532,3.711,5.685
			c3.07,1.721,7.908,1.398,9.9-1.705c0.779-1.214,0.995-2.688,1.387-4.063c0.237-0.837,0.45-1.835,1.297-2.295
			C37.051,3.453,36.811,2.711,36.861,2.28L36.861,2.28z"/>
	</g>
</g>
</svg>
